outputs/icons/toggle/star_outline_round.svg

<svg width="1200" height="1200" viewBox="0 0 1200 1200" fill="none" xmlns="http://www.w3.org/2000/svg"><g clip-path="url(#clip0_238_2769)"><path d="M982.5 452L740.5 431L646 208.5C629 168 571 168 554 208.5L459.498 431.5L217.998 452C173.998 455.5 155.998 510.5 189.498 539.5L372.998 698.5L317.998 934.5C307.998 977.5 354.498 1011.5 392.498 988.5L600 863.5L807.5 989C845.5 1012 892 978 881.995 935L827 698.5L1010.495 539.5C1043.995 510.5 1026.495 455.5 982.5 452ZM600 770L411.998 883.5L461.998 669.5L295.998 525.5L515 506.5L600 305L685.5 507L904.5 526L738.5 670L788.5 884L600 770Z" fill="black"/></g><defs><clipPath id="clip0_238_2769"><path width="24" fill="white" d="M0 0H1200V1200H0V0z"/></clipPath></defs></svg>

<svg xmlns="http://www.w3.org/2000/svg" width="1200" height="1200" fill="none"><g clip-path="url(#a)"><path fill="#000" d="m982.5 452-242-21L646 208.5c-17-40.5-75-40.5-92 0l-94.502 223-241.5 20.5c-44 3.5-62 58.5-28.5 87.5l183.5 159-55 236c-10 43 36.5 77 74.5 54L600 863.5 807.5 989c38 23 84.5-11 74.495-54L827 698.5l183.495-159c33.5-29 16-84-27.995-87.5M600 770 411.998 883.5l50-214-166-144L515 506.5 600 305l85.5 202 219 19-166 144 50 214z"/></g><defs><clipPath id="a"><path fill="#fff" d="M0 0h1200v1200H0z"/></clipPath></defs></svg>
